public/icon/svg/DockTer.svg

<?xml version="1.0" encoding="UTF-8"?>
<svg width="1024px" height="1024px" viewBox="0 0 1024 1024" version="1.1" xmlns="http://www.w3.org/2000/svg" xmlns:xlink="http://www.w3.org/1999/xlink">
    <title>DockTer</title>
    <defs>
        <linearGradient x1="73.0090129%" y1="-15.0571953%" x2="27.6895476%" y2="113.087395%" id="linearGradient-1">
            <stop stop-color="#00153D" offset="0%"></stop>
            <stop stop-color="#090C0B" offset="100%"></stop>
        </linearGradient>
        <linearGradient x1="22.6474044%" y1="1.01868818%" x2="78.0645379%" y2="124.53313%" id="linearGradient-2">
            <stop stop-color="#2099F9" offset="0%"></stop>
            <stop stop-color="#763FDD" offset="100%"></stop>
        </linearGradient>
        <linearGradient x1="35.6284349%" y1="37.9593117%" x2="111.381483%" y2="103.204159%" id="linearGradient-3">
            <stop stop-color="#2099F9" offset="0%"></stop>
            <stop stop-color="#763FDD" offset="100%"></stop>
        </linearGradient>
        <linearGradient x1="27.3419368%" y1="-21.710728%" x2="64.2903648%" y2="79.978129%" id="linearGradient-4">
            <stop stop-color="#2099F9" offset="0%"></stop>
            <stop stop-color="#763FDD" offset="100%"></stop>
        </linearGradient>
        <linearGradient x1="-17.3245192%" y1="-102.474299%" x2="73.9914971%" y2="93.4370084%" id="linearGradient-5">
            <stop stop-color="#2099F9" offset="0%"></stop>
            <stop stop-color="#763FDD" offset="100%"></stop>
        </linearGradient>
        <linearGradient x1="23.7511521%" y1="-104.892165%" x2="55.0672628%" y2="79.2588899%" id="linearGradient-6">
            <stop stop-color="#2099F9" offset="0%"></stop>
            <stop stop-color="#763FDD" offset="100%"></stop>
        </linearGradient>
        <linearGradient x1="44.652351%" y1="-7.46794243%" x2="56.5336065%" y2="111.177634%" id="linearGradient-7">
            <stop stop-color="#3900F0" offset="0%"></stop>
            <stop stop-color="#3D0BF1" stop-opacity="0.8876" offset="7.91%"></stop>
            <stop stop-color="#492AF3" stop-opacity="0.6876" offset="21.97%"></stop>
            <stop stop-color="#5B5BF7" stop-opacity="0.4236" offset="40.55%"></stop>
            <stop stop-color="#759EFD" stop-opacity="0.109" offset="62.68%"></stop>
            <stop stop-color="#7EB7FF" stop-opacity="0" offset="70.35%"></stop>
        </linearGradient>
        <linearGradient x1="42.2207314%" y1="13.3545243%" x2="68.204394%" y2="135.661157%" id="linearGradient-8">
            <stop stop-color="#5436C5" offset="9.75%"></stop>
            <stop stop-color="#6E47E0" stop-opacity="0" offset="65.03%"></stop>
        </linearGradient>
        <linearGradient x1="46.0449898%" y1="-292.051631%" x2="57.0920245%" y2="667.019869%" id="linearGradient-9">
            <stop stop-color="#2099F9" offset="0%"></stop>
            <stop stop-color="#763FDD" offset="100%"></stop>
        </linearGradient>
        <linearGradient x1="49.5238689%" y1="29.568478%" x2="50.6415652%" y2="73.4846773%" id="linearGradient-10">
            <stop stop-color="#2099F9" offset="0%"></stop>
            <stop stop-color="#763FDD" offset="100%"></stop>
        </linearGradient>
        <linearGradient x1="47.4846626%" y1="-166.623668%" x2="58.5316973%" y2="790.482521%" id="linearGradient-11">
            <stop stop-color="#2099F9" offset="0%"></stop>
            <stop stop-color="#763FDD" offset="100%"></stop>
        </linearGradient>
        <linearGradient x1="46.0102417%" y1="-294.866803%" x2="57.0572301%" y2="668.137295%" id="linearGradient-12">
            <stop stop-color="#2099F9" offset="0%"></stop>
            <stop stop-color="#763FDD" offset="100%"></stop>
        </linearGradient>
        <linearGradient x1="46.0756811%" y1="-292.040984%" x2="57.1206245%" y2="670.963115%" id="linearGradient-13">
            <stop stop-color="#2099F9" offset="0%"></stop>
            <stop stop-color="#763FDD" offset="100%"></stop>
        </linearGradient>
        <linearGradient x1="47.5840266%" y1="-165.546201%" x2="58.6516029%" y2="799.437372%" id="linearGradient-14">
            <stop stop-color="#2099F9" offset="0%"></stop>
            <stop stop-color="#763FDD" offset="100%"></stop>
        </linearGradient>
        <linearGradient x1="46.0327198%" y1="-287.800628%" x2="57.0797546%" y2="671.26883%" id="linearGradient-15">
            <stop stop-color="#2099F9" offset="0%"></stop>
            <stop stop-color="#763FDD" offset="100%"></stop>
        </linearGradient>
        <linearGradient x1="48.9550102%" y1="-39.4322791%" x2="60.002045%" y2="919.63718%" id="linearGradient-16">
            <stop stop-color="#2099F9" offset="0%"></stop>
            <stop stop-color="#763FDD" offset="100%"></stop>
        </linearGradient>
        <linearGradient x1="47.5051335%" y1="-166.989733%" x2="58.5954825%" y2="797.991786%" id="linearGradient-17">
            <stop stop-color="#2099F9" offset="0%"></stop>
            <stop stop-color="#763FDD" offset="100%"></stop>
        </linearGradient>
        <linearGradient x1="46.0777261%" y1="-290.60041%" x2="57.1247145%" y2="672.405738%" id="linearGradient-18">
            <stop stop-color="#2099F9" offset="0%"></stop>
            <stop stop-color="#763FDD" offset="100%"></stop>
        </linearGradient>
    </defs>
    <g id="Icon-SVG" stroke="none" stroke-width="1" fill="none" fill-rule="evenodd">
        <g id="DockTer" fill-rule="nonzero">
            <rect id="矩形" fill="url(#linearGradient-1)" x="0" y="0" width="1024" height="1024"></rect>
            <g id="编组" transform="translate(186.9234, 151.6007)">
                <g>
                    <path d="M0.153104806,359.765081 C0.153104806,320.486451 -0.328036537,281.251562 0.415545539,241.972932 C0.677986272,229.069596 2.69003189,215.816339 6.36420215,203.481625 C11.2193557,187.254039 22.0231659,182.530106 38.2070111,187.691441 C46.2989337,190.272108 54.303376,193.640097 61.6517166,197.882889 C104.342076,222.552318 147.032435,247.178007 189.285393,272.634758 C266.224268,319.043027 303.315892,389.552104 309.133328,477.338529 C311.364074,511.412085 304.365654,544.392137 286.607165,574.485341 C264.605883,611.795665 232.938035,634.059387 189.241653,636.640054 C166.75923,637.995998 145.020389,632.528483 125.118634,622.205814 C99.2244815,608.777597 73.63651,594.693277 48.7921207,579.427975 C21.7607252,562.806728 8.94486936,536.168994 3.17117324,505.988309 C1.11538749,495.228239 0.896686883,483.987028 0.809206639,472.964517 C0.546765906,435.216792 0.721726394,397.469066 0.721726394,359.721341 C0.546765906,359.765081 0.328065295,359.765081 0.153104806,359.765081 Z M79.6289068,301.634459 C79.2352457,310.076302 78.6666241,315.981219 78.7541043,321.842395 C79.1477654,363.133071 79.7601271,404.380006 80.1975284,445.670681 C80.3724889,463.29795 80.2850086,480.925219 80.2850086,498.508749 C80.2850086,503.626343 80.2850086,508.612717 85.7087838,511.587045 C103.817194,521.428573 121.138283,533.150925 140.077756,540.892927 C176.513277,555.764569 210.980494,537.612418 224.190011,500.433314 C239.061652,458.530277 222.615366,381.328961 167.983954,350.098514 C142.658423,335.620534 117.289152,321.142553 91.876141,306.795793 C88.9018127,305.089928 85.5338233,304.083906 79.6289068,301.634459 Z" id="形状" fill="url(#linearGradient-2)"></path>
                    <path d="M44.636809,153.049264 C48.3547194,142.551634 56.3154217,139.446086 62.9639202,135.465735 C106.485342,109.221661 150.137984,83.1962887 193.878106,57.3021363 C216.404269,44.0051392 239.236613,31.1892834 261.893996,18.1109869 C303.359632,-5.77111983 345.175188,-5.98982044 386.815785,17.1924443 C411.878875,31.1455433 436.635784,45.6235237 461.173992,60.4514251 C472.765125,67.4498447 484.225037,75.0168858 494.591446,83.7211701 C534.088776,116.919923 536.363262,166.914882 498.921718,202.256901 C423.032606,273.859481 307.952344,293.936197 213.867342,241.09813 C175.682215,219.66547 137.93449,197.532968 100.099284,175.531687 C83.0406363,165.690159 65.8945084,156.373513 44.636809,153.049264 Z M165.403286,148.10663 C171.133242,151.82454 248.334558,191.14691 265.961827,201.68828 C309.352028,226.401449 402.562229,214.810316 441.184757,182.048965 C462.529936,164.815357 476.089374,130.829282 447.527074,112.19599 C425.219612,98.1554104 355.716558,62.5072109 333.059175,48.9915131 C327.98532,45.9734447 323.436348,45.7547441 318.275013,48.7290724 C281.708271,69.724331 202.58239,114.645436 166.059388,135.640695 C162.99758,137.47778 159.060969,143.732618 165.403286,148.10663 Z" id="形状" fill="url(#linearGradient-3)"></path>
                    <path d="M561.645053,117.138623 C579.709723,128.817236 599.261558,138.702504 615.489143,152.568122 C650.787422,182.748807 654.898993,231.212862 621.56902,264.499095 C611.683753,274.340623 600.442541,283.088647 588.807669,290.830649 C574.592129,300.278515 559.545527,308.632878 544.367705,316.41862 C535.051059,321.230033 531.90177,327.528611 531.94551,337.89502 C532.164211,412.90933 531.595589,487.923639 531.81429,562.894208 C531.85803,582.139862 526.827916,599.592171 517.55501,616.125937 C509.681788,630.122776 498.484317,640.664146 484.574958,648.449887 C475.433272,653.567482 466.335327,658.685076 454.875415,665.114874 C452.819629,614.332592 454.394273,565.781056 454.000612,517.273261 C453.563211,468.590505 453.913132,419.907749 453.913132,368.600586 C413.497259,388.939743 377.236698,410.547363 344.519087,438.759742 C330.959649,399.568592 347.930816,336.757777 389.177751,315.018936 C426.094414,295.554582 461.830094,273.859481 497.259593,251.726979 C511.125212,243.066435 524.378469,232.087665 534.876098,219.57799 C558.933165,190.884469 571.22414,158.210598 559.020646,119.981731 C559.807968,119.106929 560.72651,118.144646 561.645053,117.138623 Z" id="路径" fill="url(#linearGradient-4)"></path>
                    <path d="M211.636595,673.600458 C221.609343,670.80109 227.995401,669.401406 234.119018,667.2144 C279.433785,650.986814 310.314311,619.275226 328.335241,575.535104 C336.120983,556.639371 340.713696,536.256474 344.956488,516.179758 C352.436049,480.619039 372.512765,455.468468 404.224353,438.847222 C405.580297,438.14738 406.892501,437.360058 408.292185,436.878916 C409.166987,436.572736 410.21675,436.660216 413.409779,436.354035 C413.7597,441.952771 414.372062,447.595246 414.372062,453.237722 C414.109621,512.068186 413.71596,570.854911 413.409779,629.685375 C413.322299,645.78174 413.366039,661.878105 413.540999,677.93073 C413.58474,683.704426 412.928638,688.515839 407.329902,692.102529 C378.505162,710.867042 348.280737,724.776401 312.632538,719.746287 C304.715575,718.652783 296.667393,717.29684 289.187832,714.628692 C262.550098,705.049605 239.367833,689.084461 211.636595,673.600458 Z" id="路径" fill="url(#linearGradient-5)"></path>
                    <path d="M649.475218,291.574231 C649.737659,296.123203 650.17506,300.103554 650.17506,304.083906 C650.0001,368.469365 649.431478,432.811085 649.693919,497.196545 C649.825139,529.957896 625.855552,576.803567 574.329688,594.168396 C573.804807,589.663163 572.973745,585.420371 572.930005,581.22132 C572.448863,506.819372 572.273903,432.373684 571.486581,357.971736 C571.3991,348.086468 574.460909,342.618953 583.296414,337.93876 C605.997537,325.953967 627.955078,312.613229 645.057466,292.842694 C645.801048,291.967892 647.594393,292.055372 649.475218,291.574231 Z" id="路径" fill="url(#linearGradient-6)"></path>
                </g>
                <path d="M0.0218844398,332.208804 C0.0218844398,332.208804 18.6551765,268.785627 79.6289068,301.634459 L80.2412685,498.508749 L0.809206639,473.008257 L0.0218844398,332.208804 Z" id="路径" fill="url(#linearGradient-7)"></path>
                <path d="M453.825652,368.688066 L544.323965,316.41862 C544.323965,316.41862 530.502086,321.623695 531.90177,337.89502 L531.726809,497.458986 L453.781912,522.828257 L453.781912,368.688066 L453.825652,368.688066 Z" id="路径" fill="url(#linearGradient-8)"></path>
                <g transform="translate(231.3128, 71.6489)">
                    <polygon id="路径" fill="url(#linearGradient-9)" points="91.5986256 54.1502712 91.5986256 75.4954509 112.987545 75.4954509 112.987545 54.1502712 112.987545 54.1940114 112.987545 54.1502712"></polygon>
                    <path d="M178.641469,84.8120969 C191.194884,85.3807185 203.879519,82.1002093 209.828176,70.0279356 L211.40282,67.316048 L208.778413,65.6539234 C201.648773,61.2799112 191.850986,60.7112896 183.671583,62.9420358 L183.496622,62.9420358 L183.540362,62.8545556 C182.359379,54.1065311 176.935604,46.9768912 169.805964,41.5531161 L167.050336,39.3661099 L164.81959,42.0779975 C160.445578,47.0206313 158.739713,55.7686558 159.264595,62.285934 C159.789476,67.2285678 161.36412,72.1712016 164.163488,75.9765922 C161.932742,77.1138354 159.177114,78.1635983 157.033848,79.3008415 C152.003734,80.9629661 147.148581,81.4878476 142.249687,81.4878476 L0.837872085,81.4878476 L0.312990619,84.7246166 C-0.299371092,90.585793 0.00680976339,96.4469694 1.0565727,102.220665 C17.3716383,110.793729 32.5494607,118.885652 39.1542191,122.822263 C57.5250704,133.276152 88.3618565,137.256503 121.560609,133.407373 C129.477571,132.48883 137.175833,131.132886 144.611654,129.470762 C159.002154,118.710692 170.680766,103.92653 178.641469,84.8120969 Z M42.5222085,122.472342 L42.4784684,122.472342 C36.4423315,122.472342 30.9748163,117.529708 30.9748163,111.537312 C30.9748163,105.544915 35.9174501,100.602281 42.4784684,100.602281 C49.0832268,100.602281 54.0258606,105.544915 54.0258606,111.537312 C54.0258606,117.573448 48.5146052,122.472342 42.5222085,122.472342 Z" id="形状" fill="url(#linearGradient-10)"></path>
                    <polygon id="路径" fill="url(#linearGradient-11)" points="112.987545 27.3813165 112.987545 27.3813165 91.5986256 27.3813165 91.5986256 48.682756 112.987545 48.682756"></polygon>
                    <polygon id="路径" fill="url(#linearGradient-12)" points="117.886439 54.1502712 117.886439 75.4954509 139.187878 75.4954509 139.187878 54.1502712 139.144138 54.1940114 139.144138 54.1502712"></polygon>
                    <polygon id="路径" fill="url(#linearGradient-13)" points="65.3982924 54.1502712 65.3982924 75.4954509 86.6997319 75.4954509 86.6997319 54.1502712 86.5685115 54.1940114 86.5685115 54.1502712"></polygon>
                    <polygon id="路径" fill="url(#linearGradient-14)" points="59.887037 27.3813165 59.7558166 27.3813165 59.7120765 27.3813165 38.6293376 27.3813165 38.6293376 48.682756 59.887037 48.682756"></polygon>
                    <polygon id="路径" fill="url(#linearGradient-15)" points="12.3415242 54.1502712 12.3415242 75.4954509 33.730444 75.4954509 33.730444 54.1502712 33.4680032 54.1940114 33.4242631 54.1502712"></polygon>
                    <polygon id="路径" fill="url(#linearGradient-16)" points="112.987545 0 112.987545 0 91.5986256 0 91.5986256 21.3451796 112.987545 21.3451796"></polygon>
                    <polygon id="路径" fill="url(#linearGradient-17)" points="86.6997319 27.3813165 86.5685115 27.3813165 65.3982924 27.3813165 65.3982924 48.682756 86.6997319 48.682756"></polygon>
                    <polygon id="路径" fill="url(#linearGradient-18)" points="38.6293376 75.4954509 59.9307771 75.4954509 59.9307771 54.1502712 59.8432969 54.1940114 59.8432969 54.1502712 38.6293376 54.1502712"></polygon>
                </g>
            </g>
        </g>
    </g>
</svg>

<svg xmlns="http://www.w3.org/2000/svg" width="1024" height="1024"><defs><linearGradient id="a" x1="73.009%" x2="27.69%" y1="-15.057%" y2="113.087%"><stop offset="0%" stop-color="#00153D"/><stop offset="100%" stop-color="#090C0B"/></linearGradient><linearGradient id="b" x1="22.647%" x2="78.065%" y1="1.019%" y2="124.533%"><stop offset="0%" stop-color="#2099F9"/><stop offset="100%" stop-color="#763FDD"/></linearGradient><linearGradient id="c" x1="35.628%" x2="111.381%" y1="37.959%" y2="103.204%"><stop offset="0%" stop-color="#2099F9"/><stop offset="100%" stop-color="#763FDD"/></linearGradient><linearGradient id="d" x1="27.342%" x2="64.29%" y1="-21.711%" y2="79.978%"><stop offset="0%" stop-color="#2099F9"/><stop offset="100%" stop-color="#763FDD"/></linearGradient><linearGradient id="e" x1="-17.325%" x2="73.991%" y1="-102.474%" y2="93.437%"><stop offset="0%" stop-color="#2099F9"/><stop offset="100%" stop-color="#763FDD"/></linearGradient><linearGradient id="f" x1="23.751%" x2="55.067%" y1="-104.892%" y2="79.259%"><stop offset="0%" stop-color="#2099F9"/><stop offset="100%" stop-color="#763FDD"/></linearGradient><linearGradient id="g" x1="44.652%" x2="56.534%" y1="-7.468%" y2="111.178%"><stop offset="0%" stop-color="#3900F0"/><stop offset="7.91%" stop-color="#3D0BF1" stop-opacity=".888"/><stop offset="21.97%" stop-color="#492AF3" stop-opacity=".688"/><stop offset="40.55%" stop-color="#5B5BF7" stop-opacity=".424"/><stop offset="62.68%" stop-color="#759EFD" stop-opacity=".109"/><stop offset="70.35%" stop-color="#7EB7FF" stop-opacity="0"/></linearGradient><linearGradient id="h" x1="42.221%" x2="68.204%" y1="13.355%" y2="135.661%"><stop offset="9.75%" stop-color="#5436C5"/><stop offset="65.03%" stop-color="#6E47E0" stop-opacity="0"/></linearGradient><linearGradient id="i" x1="46.045%" x2="57.092%" y1="-292.052%" y2="667.02%"><stop offset="0%" stop-color="#2099F9"/><stop offset="100%" stop-color="#763FDD"/></linearGradient><linearGradient id="j" x1="49.524%" x2="50.642%" y1="29.568%" y2="73.485%"><stop offset="0%" stop-color="#2099F9"/><stop offset="100%" stop-color="#763FDD"/></linearGradient><linearGradient id="k" x1="47.485%" x2="58.532%" y1="-166.624%" y2="790.483%"><stop offset="0%" stop-color="#2099F9"/><stop offset="100%" stop-color="#763FDD"/></linearGradient><linearGradient id="l" x1="46.01%" x2="57.057%" y1="-294.867%" y2="668.137%"><stop offset="0%" stop-color="#2099F9"/><stop offset="100%" stop-color="#763FDD"/></linearGradient><linearGradient id="m" x1="46.076%" x2="57.121%" y1="-292.041%" y2="670.963%"><stop offset="0%" stop-color="#2099F9"/><stop offset="100%" stop-color="#763FDD"/></linearGradient><linearGradient id="n" x1="47.584%" x2="58.652%" y1="-165.546%" y2="799.437%"><stop offset="0%" stop-color="#2099F9"/><stop offset="100%" stop-color="#763FDD"/></linearGradient><linearGradient id="o" x1="46.033%" x2="57.08%" y1="-287.801%" y2="671.269%"><stop offset="0%" stop-color="#2099F9"/><stop offset="100%" stop-color="#763FDD"/></linearGradient><linearGradient id="p" x1="48.955%" x2="60.002%" y1="-39.432%" y2="919.637%"><stop offset="0%" stop-color="#2099F9"/><stop offset="100%" stop-color="#763FDD"/></linearGradient><linearGradient id="q" x1="47.505%" x2="58.595%" y1="-166.99%" y2="797.992%"><stop offset="0%" stop-color="#2099F9"/><stop offset="100%" stop-color="#763FDD"/></linearGradient><linearGradient id="r" x1="46.078%" x2="57.125%" y1="-290.6%" y2="672.406%"><stop offset="0%" stop-color="#2099F9"/><stop offset="100%" stop-color="#763FDD"/></linearGradient></defs><g fill="none"><path fill="url(#a)" d="M0 0h1024v1024H0z"/><path fill="url(#b)" d="M.153 359.765c0-39.279-.481-78.513.263-117.792.262-12.903 2.274-26.157 5.948-38.491 4.855-16.228 15.66-20.952 31.843-15.79 8.092 2.58 16.096 5.948 23.445 10.19 42.69 24.67 85.38 49.296 127.633 74.753 76.94 46.408 114.03 116.917 119.848 204.704 2.231 34.073-4.767 67.053-22.526 97.146-22.001 37.31-53.669 59.574-97.365 62.155-22.483 1.356-44.222-4.112-64.123-14.434-25.895-13.428-51.482-27.513-76.327-42.778-27.031-16.621-39.847-43.259-45.62-73.44-2.057-10.76-2.275-22.001-2.363-33.023C.547 435.217.722 397.469.722 359.72c-.175.044-.394.044-.569.044Zm79.476-58.13c-.394 8.441-.962 14.346-.875 20.207.394 41.291 1.006 82.538 1.444 123.829.174 17.627.087 35.254.087 52.838 0 5.117 0 10.104 5.424 13.078 18.108 9.842 35.43 21.564 54.369 29.306 36.435 14.872 70.902-3.28 84.112-40.46 14.872-41.903-1.575-119.104-56.206-150.334-25.326-14.478-50.695-28.956-76.108-43.303-2.974-1.706-6.342-2.712-12.247-5.162" transform="translate(186.923 151.6)"/><path fill="url(#c)" d="M44.637 153.05c3.718-10.498 11.678-13.604 18.327-17.584 43.521-26.244 87.174-52.27 130.914-78.164 22.526-13.297 45.359-26.113 68.016-39.191 41.466-23.882 83.281-24.1 124.922-.919 25.063 13.954 49.82 28.432 74.358 43.26 11.591 6.998 23.051 14.565 33.417 23.27 39.498 33.198 41.772 83.193 4.33 118.535-75.888 71.602-190.969 91.68-285.054 38.841-38.185-21.433-75.933-43.565-113.768-65.566-17.058-9.842-34.204-19.158-55.462-22.483m120.766-4.943c5.73 3.718 82.932 43.04 100.559 53.581 43.39 24.713 136.6 13.122 175.223-19.639 21.345-17.234 34.904-51.22 6.342-69.853-22.307-14.04-91.81-49.689-114.468-63.204-5.074-3.019-9.623-3.237-14.784-.263-36.567 20.995-115.693 65.916-152.216 86.912-3.061 1.837-6.998 8.092-.656 12.466" transform="translate(186.923 151.6)"/><path fill="url(#d)" d="M561.645 117.139c18.065 11.678 37.617 21.564 53.844 35.43 35.298 30.18 39.41 78.644 6.08 111.93-9.885 9.842-21.126 18.59-32.761 26.332-14.216 9.448-29.262 17.802-44.44 25.588-9.317 4.811-12.466 11.11-12.422 21.476.218 75.014-.35 150.029-.132 225 .044 19.245-4.986 36.697-14.259 53.23-7.873 13.998-19.07 24.54-32.98 32.325-9.142 5.117-18.24 10.235-29.7 16.665-2.055-50.782-.48-99.334-.874-147.842-.438-48.682-.088-97.365-.088-148.672-40.416 20.339-76.676 41.946-109.394 70.159-13.56-39.191 3.412-102.002 44.659-123.741 36.916-19.464 72.652-41.16 108.082-63.292 13.865-8.66 27.118-19.64 37.616-32.149 24.057-28.694 36.348-61.367 24.145-99.596.787-.875 1.706-1.837 2.624-2.843" transform="translate(186.923 151.6)"/><path fill="url(#e)" d="M211.637 673.6c9.972-2.799 16.358-4.199 22.482-6.386 45.315-16.227 76.195-47.939 94.216-91.679 7.786-18.896 12.379-39.279 16.621-59.355 7.48-35.561 27.557-60.712 59.268-77.333 1.356-.7 2.669-1.487 4.068-1.968.875-.306 1.925-.219 5.118-.525.35 5.599.962 11.241.962 16.884-.262 58.83-.656 117.617-.962 176.447-.088 16.097-.044 32.193.131 48.246.044 5.773-.612 10.585-6.211 14.172-28.825 18.764-59.05 32.673-94.697 27.643-7.917-1.093-15.966-2.45-23.445-5.117-26.638-9.58-49.82-25.545-77.551-41.029" transform="translate(186.923 151.6)"/><path fill="url(#f)" d="M649.475 291.574c.263 4.55.7 8.53.7 12.51-.175 64.385-.744 128.727-.481 193.113.131 32.76-23.838 79.607-75.364 96.971-.525-4.505-1.356-8.748-1.4-12.947-.481-74.402-.656-148.847-1.443-223.25-.088-9.885 2.974-15.352 11.81-20.032 22.7-11.985 44.658-25.326 61.76-45.096.744-.875 2.537-.788 4.418-1.269" transform="translate(186.923 151.6)"/><path fill="url(#g)" d="M.022 332.209s18.633-63.423 79.607-30.575l.612 196.875-79.432-25.5-.787-140.8Z" transform="translate(186.923 151.6)"/><path fill="url(#h)" d="m453.826 368.688 90.498-52.27s-13.822 5.206-12.422 21.477l-.175 159.564-77.945 25.37v-154.14h.044" transform="translate(186.923 151.6)"/><path fill="url(#i)" d="M91.599 54.15v21.345h21.389V54.15v.044-.044z" transform="translate(418.236 223.25)"/><path fill="url(#j)" d="M178.641 84.812c12.554.569 25.239-2.712 31.187-14.784l1.575-2.712-2.625-1.662c-7.13-4.374-16.927-4.943-25.106-2.712h-.175l.043-.087c-1.18-8.748-6.604-15.878-13.734-21.302l-2.756-2.187-2.23 2.712c-4.374 4.943-6.08 13.69-5.555 20.208.524 4.943 2.1 9.885 4.898 13.69-2.23 1.138-4.986 2.188-7.13 3.325-5.03 1.662-9.884 2.187-14.783 2.187H.838l-.525 3.237c-.612 5.86-.306 11.722.744 17.496 16.315 8.573 31.492 16.665 38.097 20.601 18.371 10.454 49.208 14.435 82.407 10.585 7.917-.918 15.615-2.274 23.05-3.936 14.391-10.76 26.07-25.544 34.03-44.659m-136.119 37.66h-.044c-6.036 0-11.503-4.942-11.503-10.935 0-5.992 4.942-10.935 11.503-10.935 6.605 0 11.548 4.943 11.548 10.935 0 6.036-5.511 10.935-11.504 10.935Z" transform="translate(418.236 223.25)"/><path fill="url(#k)" d="M112.988 27.381h-21.39v21.302h21.39z" transform="translate(418.236 223.25)"/><path fill="url(#l)" d="M117.886 54.15v21.345h21.302V54.15l-.044.044v-.044z" transform="translate(418.236 223.25)"/><path fill="url(#m)" d="M65.398 54.15v21.345H86.7V54.15l-.131.044v-.044z" transform="translate(418.236 223.25)"/><path fill="url(#n)" d="M59.887 27.381H38.629v21.302h21.258z" transform="translate(418.236 223.25)"/><path fill="url(#o)" d="M12.342 54.15v21.345H33.73V54.15l-.262.044-.044-.044z" transform="translate(418.236 223.25)"/><path fill="url(#p)" d="M112.988 0h-21.39v21.345h21.39z" transform="translate(418.236 223.25)"/><path fill="url(#q)" d="M86.7 27.381H65.399v21.302h21.3z" transform="translate(418.236 223.25)"/><path fill="url(#r)" d="M38.63 75.495h21.3V54.15l-.087.044v-.044H38.63z" transform="translate(418.236 223.25)"/></g></svg>
